X:1
T:Title
%%score ( 1 2 ) { 3 | 4 }
L:1/8
Q:1/4=115
M:4/4
K:F
V:1 treble nm="Grand Piano, Staff"
V:2 treble 
V:3 bass nm="Choir Pad, Bristol, CM"
V:4 bass 
V:1
 [Cc]2 [DB]2 [CG]2 [CA]2 | [CF]2 [DG]2 GG F2 | z4 G2 G2 | ^F2 z2 z4 | [CG]2 [CA]2 [B,B]2 [CA]2 | %5
w: By~Joseph~Proud~(1745\-1826) * * *|||||
 z4 F2 z2 | [Gc]2 [FA]2 [FB]2 [FG]2 | [EG]2 F6- | F2 z2 z4 |] %9
w: ||||
V:2
 x8 | z4 E2 z2 | [DB]2 [DA]2 B,C D2- | DC [=B,G]6 | x8 | [CF]2 [B,G]2 A,B, [CE]2 | x8 | x8 | x8 |] %9
V:3
 A,2 G,2 E,2 F,2 | C2 B,2 G,2 A,2 | G,2 ^F,2 G,2 A,2 | A,2 G,6 | E,2 F,2 F,2 F,2 | %5
 F,2 D,2 F,2 G,2 | C2 C2 D2 G,2 | C[K:bass]B, A,6- | A,2 z2 z4 |] %9
V:4
 F,2 B,,2 C,2 z2 | A,,2 B,,2 C,2 F,2 | z2 D,2 _E,2 D,2 | D,2 G,,6 | C,2 z2 D,2 z2 | %5
 A,,2 B,,2 D,2 C,2 | E,2 F,2 B,,2 C,2 | C,2 F,6- | F,2 z2 z4 |] %9

